assets/logo/black/nada.svg

<svg id="レイヤー_1" data-name="レイヤー 1" xmlns="http://www.w3.org/2000/svg" viewBox="0 0 274.75 66.76"><title>nada</title><path id="NADA" d="M99.88,0H96.34V1.49l2.54.75L70.81,66.76H83.46l5.05-12.67h32.37l5.25,12.67h12.76L110.13,0Zm-7.3,43.85,12.09-29.71L117,43.85ZM51.49,0H63.37V66.76H48.29l-33-51.2H15.1v51.2H3.21V2.44L0,1.49V0H19L51.3,49.6h.19ZM172.64,0H143.12V1.49l3.21,1V66.76h24.9c16,0,35.36-10.56,35.36-33.38C206.59,10.75,190.18,0,172.64,0Zm-5.56,56h-8.86V10.75h10.84c14.52,0,25.08,6.41,25.08,22.63S182,56,167.08,56ZM246,0H232.2V1.49l2.54.75L206.68,66.76h12.64l5.06-12.67h32.37L262,66.76h12.76ZM228.44,43.85l12.09-29.71,12.38,29.71Z"/></svg>

<?xml version="1.0" encoding="utf-8"?>
<!-- Generator: Adobe Illustrator 23.0.0, SVG Export Plug-In . SVG Version: 6.00 Build 0)  -->
<svg version="1.1" id="レイヤー_1" xmlns="http://www.w3.org/2000/svg" xmlns:xlink="http://www.w3.org/1999/xlink" x="0px"
	 y="0px" viewBox="0 0 274.8 66.8" style="enable-background:new 0 0 274.8 66.8;" xml:space="preserve">
<g>
	<g>
		<path d="M246,0h-13.8v1.5l2.5,0.8l-28.1,64.5h12.6l5.1-12.7h32.4l5.3,12.7h12.8L246,0z M228.4,43.8l12.1-29.7l12.4,29.7H228.4z"/>
	</g>
	<g>
		<path d="M172.6,0h-29.5v1.5l3.2,1v64.3h24.9c16,0,35.4-10.6,35.4-33.4C206.6,10.8,190.2,0,172.6,0z M167.1,56h-8.9V10.8H169
			c14.5,0,25.1,6.4,25.1,22.6C194.1,49.6,182,56,167.1,56z"/>
	</g>
	<g>
		<path d="M110.1,0H99.9h-3.5v1.5l2.5,0.8L70.8,66.8h12.7l5.1-12.7H121l5.3,12.7h12.8L110.1,0z M92.6,43.8l12.1-29.7L117,43.8H92.6z
			"/>
	</g>
	<g>
		<polygon points="51.5,0 63.4,0 63.4,66.8 48.3,66.8 15.3,15.6 15.1,15.6 15.1,66.8 3.2,66.8 3.2,2.4 0,1.5 0,0 19,0 51.3,49.6 
			51.5,49.6 		"/>
	</g>
</g>
</svg>
